X:144
%%etbk:tnset id:51,pos:1,rep:3
%%etbk:site1 http://www.thesession.org/tunes/display/1339
T: Mullinavat
Z: Piano Box Version by Martin Fleischmann (www.boxplayer.ch)
M: 4/4
L: 1/8
R: reel
K: Edor
f|: !4!gfe!1!d !3!BA!1!G!2!F | !3!G!5!BAG !1!E!2!E!1!E!2!F | !3!G!1!EEE !3!G!4!A!2!Bd | !5!e!2!BBA B!4!d!2!ef |
!4!gfed e!1!d!3!Bc | !3!BA!1!G!2!F EEEF | !3!G2G!2!F !1!GA!3!B!1!A | !2!Bd!5!ed !5!!2!e3f :|
|:!4!g!2!e!1!Be !3!gabg | !4!a!2!f!1!df afd!2!f | !4!geBe !3!gabg | !4!afd!2!f !3!g!1!e !3!(3e!2!e!1!e|
!4!geBe !3!gbag | !4!af!1!d!1!e !2!fg!4!a2| !5!bg!4!a!2!f !4!gfe!1!d | !1!B!4!gfg !2!e3f:|

